assets/icons/profile_tagged.svg

<svg width="23" height="22" viewBox="0 0 23 22" fill="none" xmlns="http://www.w3.org/2000/svg">
<path fill-rule="evenodd" clip-rule="evenodd" d="M16.9117 2.20337C15.8674 2.06296 14.5331 2.06297 12.8485 2.06299H10.9118C9.22713 2.06297 7.8928 2.06296 6.84853 2.20337C5.77381 2.34785 4.90394 2.6523 4.21793 3.33829C3.53193 4.0243 3.22749 4.89417 3.08301 5.96889C2.9426 7.01316 2.94261 8.34749 2.94263 10.0321V11.9689C2.94261 13.6535 2.9426 14.9878 3.08301 16.0321C3.22749 17.1068 3.53193 17.9767 4.21793 18.6627C4.90394 19.3487 5.77381 19.6531 6.84853 19.7976C7.89279 19.938 9.22711 19.938 10.9117 19.938H12.8485C14.5331 19.938 15.8674 19.938 16.9117 19.7976C17.9864 19.6531 18.8563 19.3487 19.5424 18.6627C20.2283 17.9767 20.5327 17.1068 20.6773 16.0321C20.8176 14.9878 20.8176 13.6535 20.8176 11.9689V10.0321C20.8176 8.34756 20.8176 7.01315 20.6773 5.96889C20.5327 4.89417 20.2283 4.0243 19.5424 3.33829C18.8563 2.6523 17.9864 2.34785 16.9117 2.20337ZM8.90096 8.70882C8.90096 7.06347 10.2348 5.72966 11.8801 5.72966C13.5255 5.72966 14.8593 7.06347 14.8593 8.70882C14.8593 9.88866 14.1734 10.9083 13.1787 11.3908C15.4617 11.9693 17.151 14.0376 17.151 16.5005C17.151 16.8802 16.8431 17.188 16.4635 17.188H7.29679C6.9171 17.188 6.60929 16.8802 6.60929 16.5005C6.60929 14.0376 8.2985 11.9693 10.5816 11.3908C9.58679 10.9083 8.90096 9.88866 8.90096 8.70882Z" fill="white"/>
</svg>

<svg xmlns="http://www.w3.org/2000/svg" width="23" height="22" fill="none" viewBox="0 0 23 22"><path fill="#fff" fill-rule="evenodd" d="M16.912 2.203c-1.045-.14-2.379-.14-4.063-.14h-1.937c-1.685 0-3.02 0-4.063.14-1.075.145-1.945.45-2.631 1.135-.686.686-.99 1.556-1.135 2.63-.14 1.045-.14 2.38-.14 4.064v1.937c0 1.685 0 3.019.14 4.063.144 1.075.449 1.945 1.135 2.63.686.687 1.556.991 2.63 1.136 1.045.14 2.38.14 4.064.14h1.936c1.685 0 3.02 0 4.064-.14 1.074-.145 1.944-.45 2.63-1.135.686-.686.99-1.556 1.135-2.63.14-1.045.14-2.38.14-4.064v-1.937c0-1.684 0-3.019-.14-4.063-.144-1.075-.449-1.945-1.135-2.63-.686-.687-1.556-.991-2.63-1.136M8.9 8.71a2.98 2.98 0 1 1 4.278 2.682 5.27 5.27 0 0 1 3.972 5.11c0 .38-.308.687-.687.687H7.297a.69.69 0 0 1-.688-.687 5.27 5.27 0 0 1 3.973-5.11A2.98 2.98 0 0 1 8.9 8.709" clip-rule="evenodd"/></svg>
